X:10120023
T:Rond de loudeac J1.1 Skelton 1
O:Shepherd p38#4 (Bm);  learned frm John Skelton
G:Lark16
N:Drone E
M:4/4
A:Brittany
K:Em
L:1/8
Q:1/4=180
|EB BA GA BA | GA BA G2E2 | EB BA GA BA | GA BA G2E2 |
|:EG FE DE F2 | FA GF G2E2 | EG FE DE F2 | FA GF G2E2 :|

